!!!OTL: Lied von den sieben Worten Jesu am Kreuz
!!!ARE: Europa, Mitteleuropa, Deutschland
!!!SCT: A0541B
!!!YEM: Copyright 1995, estate of Helmut Schaffrath.
**kern
*ICvox
*Ivox
*M4/1
*k[f#]
*e:
{2b
=1
1ccn
1b
1a
1b
=2
1ddn
1ccn
1b
2r}
{2b
=3
1ccn
1b
1ccn
1a
=4
1a
1fn
1e
2r}
{2dn
=5
1e
1e
1gn
1gn
=6
1e
1dn
1cn
2r}
{2gn
=7
1ccn
1b
1a
1gn
=8
1a
1fn
1e
2r}
{2cn
=9
1gn
1gn
1a
1a
=10
1gn
1fn
1.e}
==
!!!AGN: Romanze, Ballade, Lied, religioeses Lied
!! Leisentrits Gsgb. 1567 fol 91a.
!!!ONB: ESAC (Essen Associative Code) Database: ALTDEU
!!!AMT: simple quadruple
!!!AIN: vox
!!!EED: Helmut Schaffrath
!!!EEV: 1.0
*-
